docs/Library/Material/Material3D/Concrete/CustomCDP.EX1.svg

<svg xmlns="http://www.w3.org/2000/svg" width="750" height="300" viewBox="0 0 750 300"><title>Gnuplot</title><desc>Produced by GNUPLOT 5.4 patchlevel 5</desc><path fill="none" d="M0 0h750v300H0z"/><path fill="none" stroke="gray" stroke-dasharray="2,4" stroke-width=".5" d="M64.14 242.4h660.68" class="gridline" color="gray"/><g fill="none" stroke="currentColor" color="#000"><path stroke="#000" d="M64.14 242.4h9m651.68 0h-9"/><text fill="#000" stroke="none" font-family="Arial" font-size="12" text-anchor="end" transform="translate(55.75 246.3)"><tspan> 0</tspan></text></g><path fill="none" stroke="gray" stroke-dasharray="2,4" stroke-width=".5" d="M64.14 197.52h660.68" class="gridline" color="gray"/><g fill="none" stroke="currentColor" color="#000"><path stroke="#000" d="M64.14 197.52h9m651.68 0h-9"/><text fill="#000" stroke="none" font-family="Arial" font-size="12" text-anchor="end" transform="translate(55.75 201.42)"><tspan> 2</tspan></text></g><path fill="none" stroke="gray" stroke-dasharray="2,4" stroke-width=".5" d="M64.14 152.64h660.68" class="gridline" color="gray"/><g fill="none" stroke="currentColor" color="#000"><path stroke="#000" d="M64.14 152.64h9m651.68 0h-9"/><text fill="#000" stroke="none" font-family="Arial" font-size="12" text-anchor="end" transform="translate(55.75 156.54)"><tspan> 4</tspan></text></g><path fill="none" stroke="gray" stroke-dasharray="2,4" stroke-width=".5" d="M64.14 107.77h660.68" class="gridline" color="gray"/><g fill="none" stroke="currentColor" color="#000"><path stroke="#000" d="M64.14 107.77h9m651.68 0h-9"/><text fill="#000" stroke="none" font-family="Arial" font-size="12" text-anchor="end" transform="translate(55.75 111.67)"><tspan> 6</tspan></text></g><path fill="none" stroke="gray" stroke-dasharray="2,4" stroke-width=".5" d="M64.14 62.89h660.68" class="gridline" color="gray"/><g fill="none" stroke="currentColor" color="#000"><path stroke="#000" d="M64.14 62.89h9m651.68 0h-9"/><text fill="#000" stroke="none" font-family="Arial" font-size="12" text-anchor="end" transform="translate(55.75 66.79)"><tspan> 8</tspan></text></g><path fill="none" stroke="gray" stroke-dasharray="2,4" stroke-width=".5" d="M64.14 18.01h660.68" class="gridline" color="gray"/><g fill="none" stroke="currentColor" color="#000"><path stroke="#000" d="M64.14 18.01h9m651.68 0h-9"/><text fill="#000" stroke="none" font-family="Arial" font-size="12" text-anchor="end" transform="translate(55.75 21.91)"><tspan> 10</tspan></text></g><path fill="none" stroke="gray" stroke-dasharray="2,4" stroke-width=".5" d="M64.14 242.4V18.01" class="gridline" color="gray"/><g fill="none" stroke="currentColor" color="#000"><path stroke="#000" d="M64.14 242.4v-9m0-215.39v9"/><text fill="#000" stroke="none" font-family="Arial" font-size="12" text-anchor="middle" transform="translate(64.14 264.3)"><tspan> 0</tspan></text></g><path fill="none" stroke="gray" stroke-dasharray="2,4" stroke-width=".5" d="M196.28 242.4V18.01" class="gridline" color="gray"/><g fill="none" stroke="currentColor" color="#000"><path stroke="#000" d="M196.28 242.4v-9m0-215.39v9"/><text fill="#000" stroke="none" font-family="Arial" font-size="12" text-anchor="middle" transform="translate(196.28 264.3)"><tspan> 0.01</tspan></text></g><path fill="none" stroke="gray" stroke-dasharray="2,4" stroke-width=".5" d="M328.41 242.4V18.01" class="gridline" color="gray"/><g fill="none" stroke="currentColor" color="#000"><path stroke="#000" d="M328.41 242.4v-9m0-215.39v9"/><text fill="#000" stroke="none" font-family="Arial" font-size="12" text-anchor="middle" transform="translate(328.41 264.3)"><tspan> 0.02</tspan></text></g><path fill="none" stroke="gray" stroke-dasharray="2,4" stroke-width=".5" d="M460.55 242.4V18.01" class="gridline" color="gray"/><g fill="none" stroke="currentColor" color="#000"><path stroke="#000" d="M460.55 242.4v-9m0-215.39v9"/><text fill="#000" stroke="none" font-family="Arial" font-size="12" text-anchor="middle" transform="translate(460.55 264.3)"><tspan> 0.03</tspan></text></g><path fill="none" stroke="gray" stroke-dasharray="2,4" stroke-width=".5" d="M592.68 242.4V18.01" class="gridline" color="gray"/><g fill="none" stroke="currentColor" color="#000"><path stroke="#000" d="M592.68 242.4v-9m0-215.39v9"/><text fill="#000" stroke="none" font-family="Arial" font-size="12" text-anchor="middle" transform="translate(592.68 264.3)"><tspan> 0.04</tspan></text></g><path fill="none" stroke="gray" stroke-dasharray="2,4" stroke-width=".5" d="M724.82 242.4V18.01" class="gridline" color="gray"/><g fill="none" stroke="currentColor" color="#000"><path stroke="#000" d="M724.82 242.4v-9m0-215.39v9"/><text fill="#000" stroke="none" font-family="Arial" font-size="12" text-anchor="middle" transform="translate(724.82 264.3)"><tspan> 0.05</tspan></text></g><path fill="none" stroke="#000" d="M64.14 18.01V242.4h660.68V18.01z" color="#000"/><text color="#000" font-family="Arial" font-size="12" text-anchor="middle" transform="rotate(-90 74.695 55.515)"><tspan>stress</tspan></text><text color="#000" font-family="Arial" font-size="12" text-anchor="middle" transform="translate(394.48 291.3)"><tspan>strain</tspan></text><title>&quot;ES&quot; u 1:2</title><path fill="none" stroke="#9400d3" stroke-width="2" d="m64.14 242.4 6.61-56.1 6.6-56.1 6.61-56.09 6.61-56.1 6.6 5.47 6.61 5.33 6.61 5.21 6.6 5.07 6.61 4.96 6.61 4.83 6.6 4.71 6.61 4.6 6.61 4.49 6.61 4.38 6.6 4.27 6.61 4.17 6.61 4.06 6.6 3.97 6.61 3.87 6.61 3.77 6.6 3.69 6.61 3.59 6.61 3.5 6.6 3.42 6.61 3.34 6.61 3.26 6.6 3.17 6.61 3.1 6.61 3.02 6.6 2.95 6.61 2.88 6.61 2.81 6.6 2.73 6.61 2.68 6.61 2.6 6.6 2.55 6.61 2.48 6.61 2.42 6.61 2.36 6.6 2.3 6.61 2.25 6.61 2.19 6.6 2.14 6.61 2.09 6.61 2.04 6.6 1.98 6.61 1.94 6.61 1.89 6.6 1.85 6.61 1.8 6.61 1.75 6.6 1.71 6.61 1.68 6.61 1.63 6.6 1.59 6.61 1.55 6.61 1.51 6.6 1.48 6.61 1.44 6.61 1.41 6.6 1.37 6.61 1.34 6.61 1.3 6.61 1.28 6.6 1.24 6.61 1.21 6.61 1.18 6.6 1.16 6.61 1.12 6.61 1.1 6.6 1.07 6.61 1.05 6.61 1.02 6.6.99 6.61.97 6.61.95 6.6.93 6.61.9 6.61.88 6.6.85 6.61.84 6.61.82 6.6.8 6.61.77 6.61.76 6.6.74 6.61.72 6.61.71 6.61.68 6.6.67 6.61.66 6.61.64 6.6.62 6.61.61 6.61.59 6.6.58 6.61.56 6.55.54 7.56.42 5.71.3" color="#000"/><path fill="none" stroke="#000" d="M64.14 18.01V242.4h660.68V18.01z" color="#000"/></svg>

<?xml version="1.0" encoding="windows-1252"  standalone="no"?>
<svg 
 width="750" height="300"
 viewBox="0 0 750 300"
 xmlns="http://www.w3.org/2000/svg"
 xmlns:xlink="http://www.w3.org/1999/xlink"
>

<title>Gnuplot</title>
<desc>Produced by GNUPLOT 5.4 patchlevel 5 </desc>

<g id="gnuplot_canvas">

<rect x="0" y="0" width="750" height="300" fill="none"/>
<defs>

	<circle id='gpDot' r='0.5' stroke-width='0.5' stroke='currentColor'/>
	<path id='gpPt0' stroke-width='0.222' stroke='currentColor' d='M-1,0 h2 M0,-1 v2'/>
	<path id='gpPt1' stroke-width='0.222' stroke='currentColor' d='M-1,-1 L1,1 M1,-1 L-1,1'/>
	<path id='gpPt2' stroke-width='0.222' stroke='currentColor' d='M-1,0 L1,0 M0,-1 L0,1 M-1,-1 L1,1 M-1,1 L1,-1'/>
	<rect id='gpPt3' stroke-width='0.222' stroke='currentColor' x='-1' y='-1' width='2' height='2'/>
	<rect id='gpPt4' stroke-width='0.222' stroke='currentColor' fill='currentColor' x='-1' y='-1' width='2' height='2'/>
	<circle id='gpPt5' stroke-width='0.222' stroke='currentColor' cx='0' cy='0' r='1'/>
	<use xlink:href='#gpPt5' id='gpPt6' fill='currentColor' stroke='none'/>
	<path id='gpPt7' stroke-width='0.222' stroke='currentColor' d='M0,-1.33 L-1.33,0.67 L1.33,0.67 z'/>
	<use xlink:href='#gpPt7' id='gpPt8' fill='currentColor' stroke='none'/>
	<use xlink:href='#gpPt7' id='gpPt9' stroke='currentColor' transform='rotate(180)'/>
	<use xlink:href='#gpPt9' id='gpPt10' fill='currentColor' stroke='none'/>
	<use xlink:href='#gpPt3' id='gpPt11' stroke='currentColor' transform='rotate(45)'/>
	<use xlink:href='#gpPt11' id='gpPt12' fill='currentColor' stroke='none'/>
	<path id='gpPt13' stroke-width='0.222' stroke='currentColor' d='M0,1.330 L1.265,0.411 L0.782,-1.067 L-0.782,-1.076 L-1.265,0.411 z'/>
	<use xlink:href='#gpPt13' id='gpPt14' fill='currentColor' stroke='none'/>
	<filter id='textbox' filterUnits='objectBoundingBox' x='0' y='0' height='1' width='1'>
	  <feFlood flood-color='white' flood-opacity='1' result='bgnd'/>
	  <feComposite in='SourceGraphic' in2='bgnd' operator='atop'/>
	</filter>
	<filter id='greybox' filterUnits='objectBoundingBox' x='0' y='0' height='1' width='1'>
	  <feFlood flood-color='lightgrey' flood-opacity='1' result='grey'/>
	  <feComposite in='SourceGraphic' in2='grey' operator='atop'/>
	</filter>
</defs>
<g fill="none" color="white" stroke="currentColor" stroke-width="1.00" stroke-linecap="butt" stroke-linejoin="miter">
</g>
<g fill="none" color="black" stroke="currentColor" stroke-width="1.00" stroke-linecap="butt" stroke-linejoin="miter">
</g>
<g fill="none" color="black" stroke="black" stroke-width="0.50" stroke-linecap="butt" stroke-linejoin="miter">
</g>
<g fill="none" color="gray" stroke="currentColor" stroke-width="0.50" stroke-linecap="butt" stroke-linejoin="miter">
	<path stroke='gray' stroke-dasharray='2,4' class="gridline"  d='M64.14,242.40 L724.82,242.40  '/></g>
<g fill="none" color="gray" stroke="gray" stroke-width="1.00" stroke-linecap="butt" stroke-linejoin="miter">
</g>
<g fill="none" color="black" stroke="currentColor" stroke-width="1.00" stroke-linecap="butt" stroke-linejoin="miter">
	<path stroke='black'  d='M64.14,242.40 L73.14,242.40 M724.82,242.40 L715.82,242.40  '/>	<g transform="translate(55.75,246.30)" stroke="none" fill="black" font-family="Arial" font-size="12.00"  text-anchor="end">
		<text><tspan font-family="Arial" > 0</tspan></text>
	</g>
</g>
<g fill="none" color="black" stroke="currentColor" stroke-width="1.00" stroke-linecap="butt" stroke-linejoin="miter">
</g>
<g fill="none" color="black" stroke="black" stroke-width="0.50" stroke-linecap="butt" stroke-linejoin="miter">
</g>
<g fill="none" color="gray" stroke="currentColor" stroke-width="0.50" stroke-linecap="butt" stroke-linejoin="miter">
	<path stroke='gray' stroke-dasharray='2,4' class="gridline"  d='M64.14,197.52 L724.82,197.52  '/></g>
<g fill="none" color="gray" stroke="gray" stroke-width="1.00" stroke-linecap="butt" stroke-linejoin="miter">
</g>
<g fill="none" color="black" stroke="currentColor" stroke-width="1.00" stroke-linecap="butt" stroke-linejoin="miter">
	<path stroke='black'  d='M64.14,197.52 L73.14,197.52 M724.82,197.52 L715.82,197.52  '/>	<g transform="translate(55.75,201.42)" stroke="none" fill="black" font-family="Arial" font-size="12.00"  text-anchor="end">
		<text><tspan font-family="Arial" > 2</tspan></text>
	</g>
</g>
<g fill="none" color="black" stroke="currentColor" stroke-width="1.00" stroke-linecap="butt" stroke-linejoin="miter">
</g>
<g fill="none" color="black" stroke="black" stroke-width="0.50" stroke-linecap="butt" stroke-linejoin="miter">
</g>
<g fill="none" color="gray" stroke="currentColor" stroke-width="0.50" stroke-linecap="butt" stroke-linejoin="miter">
	<path stroke='gray' stroke-dasharray='2,4' class="gridline"  d='M64.14,152.64 L724.82,152.64  '/></g>
<g fill="none" color="gray" stroke="gray" stroke-width="1.00" stroke-linecap="butt" stroke-linejoin="miter">
</g>
<g fill="none" color="black" stroke="currentColor" stroke-width="1.00" stroke-linecap="butt" stroke-linejoin="miter">
	<path stroke='black'  d='M64.14,152.64 L73.14,152.64 M724.82,152.64 L715.82,152.64  '/>	<g transform="translate(55.75,156.54)" stroke="none" fill="black" font-family="Arial" font-size="12.00"  text-anchor="end">
		<text><tspan font-family="Arial" > 4</tspan></text>
	</g>
</g>
<g fill="none" color="black" stroke="currentColor" stroke-width="1.00" stroke-linecap="butt" stroke-linejoin="miter">
</g>
<g fill="none" color="black" stroke="black" stroke-width="0.50" stroke-linecap="butt" stroke-linejoin="miter">
</g>
<g fill="none" color="gray" stroke="currentColor" stroke-width="0.50" stroke-linecap="butt" stroke-linejoin="miter">
	<path stroke='gray' stroke-dasharray='2,4' class="gridline"  d='M64.14,107.77 L724.82,107.77  '/></g>
<g fill="none" color="gray" stroke="gray" stroke-width="1.00" stroke-linecap="butt" stroke-linejoin="miter">
</g>
<g fill="none" color="black" stroke="currentColor" stroke-width="1.00" stroke-linecap="butt" stroke-linejoin="miter">
	<path stroke='black'  d='M64.14,107.77 L73.14,107.77 M724.82,107.77 L715.82,107.77  '/>	<g transform="translate(55.75,111.67)" stroke="none" fill="black" font-family="Arial" font-size="12.00"  text-anchor="end">
		<text><tspan font-family="Arial" > 6</tspan></text>
	</g>
</g>
<g fill="none" color="black" stroke="currentColor" stroke-width="1.00" stroke-linecap="butt" stroke-linejoin="miter">
</g>
<g fill="none" color="black" stroke="black" stroke-width="0.50" stroke-linecap="butt" stroke-linejoin="miter">
</g>
<g fill="none" color="gray" stroke="currentColor" stroke-width="0.50" stroke-linecap="butt" stroke-linejoin="miter">
	<path stroke='gray' stroke-dasharray='2,4' class="gridline"  d='M64.14,62.89 L724.82,62.89  '/></g>
<g fill="none" color="gray" stroke="gray" stroke-width="1.00" stroke-linecap="butt" stroke-linejoin="miter">
</g>
<g fill="none" color="black" stroke="currentColor" stroke-width="1.00" stroke-linecap="butt" stroke-linejoin="miter">
	<path stroke='black'  d='M64.14,62.89 L73.14,62.89 M724.82,62.89 L715.82,62.89  '/>	<g transform="translate(55.75,66.79)" stroke="none" fill="black" font-family="Arial" font-size="12.00"  text-anchor="end">
		<text><tspan font-family="Arial" > 8</tspan></text>
	</g>
</g>
<g fill="none" color="black" stroke="currentColor" stroke-width="1.00" stroke-linecap="butt" stroke-linejoin="miter">
</g>
<g fill="none" color="black" stroke="black" stroke-width="0.50" stroke-linecap="butt" stroke-linejoin="miter">
</g>
<g fill="none" color="gray" stroke="currentColor" stroke-width="0.50" stroke-linecap="butt" stroke-linejoin="miter">
	<path stroke='gray' stroke-dasharray='2,4' class="gridline"  d='M64.14,18.01 L724.82,18.01  '/></g>
<g fill="none" color="gray" stroke="gray" stroke-width="1.00" stroke-linecap="butt" stroke-linejoin="miter">
</g>
<g fill="none" color="black" stroke="currentColor" stroke-width="1.00" stroke-linecap="butt" stroke-linejoin="miter">
	<path stroke='black'  d='M64.14,18.01 L73.14,18.01 M724.82,18.01 L715.82,18.01  '/>	<g transform="translate(55.75,21.91)" stroke="none" fill="black" font-family="Arial" font-size="12.00"  text-anchor="end">
		<text><tspan font-family="Arial" > 10</tspan></text>
	</g>
</g>
<g fill="none" color="black" stroke="currentColor" stroke-width="1.00" stroke-linecap="butt" stroke-linejoin="miter">
</g>
<g fill="none" color="black" stroke="black" stroke-width="0.50" stroke-linecap="butt" stroke-linejoin="miter">
</g>
<g fill="none" color="gray" stroke="currentColor" stroke-width="0.50" stroke-linecap="butt" stroke-linejoin="miter">
	<path stroke='gray' stroke-dasharray='2,4' class="gridline"  d='M64.14,242.40 L64.14,18.01  '/></g>
<g fill="none" color="gray" stroke="gray" stroke-width="1.00" stroke-linecap="butt" stroke-linejoin="miter">
</g>
<g fill="none" color="black" stroke="currentColor" stroke-width="1.00" stroke-linecap="butt" stroke-linejoin="miter">
	<path stroke='black'  d='M64.14,242.40 L64.14,233.40 M64.14,18.01 L64.14,27.01  '/>	<g transform="translate(64.14,264.30)" stroke="none" fill="black" font-family="Arial" font-size="12.00"  text-anchor="middle">
		<text><tspan font-family="Arial" > 0</tspan></text>
	</g>
</g>
<g fill="none" color="black" stroke="currentColor" stroke-width="1.00" stroke-linecap="butt" stroke-linejoin="miter">
</g>
<g fill="none" color="black" stroke="black" stroke-width="0.50" stroke-linecap="butt" stroke-linejoin="miter">
</g>
<g fill="none" color="gray" stroke="currentColor" stroke-width="0.50" stroke-linecap="butt" stroke-linejoin="miter">
	<path stroke='gray' stroke-dasharray='2,4' class="gridline"  d='M196.28,242.40 L196.28,18.01  '/></g>
<g fill="none" color="gray" stroke="gray" stroke-width="1.00" stroke-linecap="butt" stroke-linejoin="miter">
</g>
<g fill="none" color="black" stroke="currentColor" stroke-width="1.00" stroke-linecap="butt" stroke-linejoin="miter">
	<path stroke='black'  d='M196.28,242.40 L196.28,233.40 M196.28,18.01 L196.28,27.01  '/>	<g transform="translate(196.28,264.30)" stroke="none" fill="black" font-family="Arial" font-size="12.00"  text-anchor="middle">
		<text><tspan font-family="Arial" > 0.01</tspan></text>
	</g>
</g>
<g fill="none" color="black" stroke="currentColor" stroke-width="1.00" stroke-linecap="butt" stroke-linejoin="miter">
</g>
<g fill="none" color="black" stroke="black" stroke-width="0.50" stroke-linecap="butt" stroke-linejoin="miter">
</g>
<g fill="none" color="gray" stroke="currentColor" stroke-width="0.50" stroke-linecap="butt" stroke-linejoin="miter">
	<path stroke='gray' stroke-dasharray='2,4' class="gridline"  d='M328.41,242.40 L328.41,18.01  '/></g>
<g fill="none" color="gray" stroke="gray" stroke-width="1.00" stroke-linecap="butt" stroke-linejoin="miter">
</g>
<g fill="none" color="black" stroke="currentColor" stroke-width="1.00" stroke-linecap="butt" stroke-linejoin="miter">
	<path stroke='black'  d='M328.41,242.40 L328.41,233.40 M328.41,18.01 L328.41,27.01  '/>	<g transform="translate(328.41,264.30)" stroke="none" fill="black" font-family="Arial" font-size="12.00"  text-anchor="middle">
		<text><tspan font-family="Arial" > 0.02</tspan></text>
	</g>
</g>
<g fill="none" color="black" stroke="currentColor" stroke-width="1.00" stroke-linecap="butt" stroke-linejoin="miter">
</g>
<g fill="none" color="black" stroke="black" stroke-width="0.50" stroke-linecap="butt" stroke-linejoin="miter">
</g>
<g fill="none" color="gray" stroke="currentColor" stroke-width="0.50" stroke-linecap="butt" stroke-linejoin="miter">
	<path stroke='gray' stroke-dasharray='2,4' class="gridline"  d='M460.55,242.40 L460.55,18.01  '/></g>
<g fill="none" color="gray" stroke="gray" stroke-width="1.00" stroke-linecap="butt" stroke-linejoin="miter">
</g>
<g fill="none" color="black" stroke="currentColor" stroke-width="1.00" stroke-linecap="butt" stroke-linejoin="miter">
	<path stroke='black'  d='M460.55,242.40 L460.55,233.40 M460.55,18.01 L460.55,27.01  '/>	<g transform="translate(460.55,264.30)" stroke="none" fill="black" font-family="Arial" font-size="12.00"  text-anchor="middle">
		<text><tspan font-family="Arial" > 0.03</tspan></text>
	</g>
</g>
<g fill="none" color="black" stroke="currentColor" stroke-width="1.00" stroke-linecap="butt" stroke-linejoin="miter">
</g>
<g fill="none" color="black" stroke="black" stroke-width="0.50" stroke-linecap="butt" stroke-linejoin="miter">
</g>
<g fill="none" color="gray" stroke="currentColor" stroke-width="0.50" stroke-linecap="butt" stroke-linejoin="miter">
	<path stroke='gray' stroke-dasharray='2,4' class="gridline"  d='M592.68,242.40 L592.68,18.01  '/></g>
<g fill="none" color="gray" stroke="gray" stroke-width="1.00" stroke-linecap="butt" stroke-linejoin="miter">
</g>
<g fill="none" color="black" stroke="currentColor" stroke-width="1.00" stroke-linecap="butt" stroke-linejoin="miter">
	<path stroke='black'  d='M592.68,242.40 L592.68,233.40 M592.68,18.01 L592.68,27.01  '/>	<g transform="translate(592.68,264.30)" stroke="none" fill="black" font-family="Arial" font-size="12.00"  text-anchor="middle">
		<text><tspan font-family="Arial" > 0.04</tspan></text>
	</g>
</g>
<g fill="none" color="black" stroke="currentColor" stroke-width="1.00" stroke-linecap="butt" stroke-linejoin="miter">
</g>
<g fill="none" color="black" stroke="black" stroke-width="0.50" stroke-linecap="butt" stroke-linejoin="miter">
</g>
<g fill="none" color="gray" stroke="currentColor" stroke-width="0.50" stroke-linecap="butt" stroke-linejoin="miter">
	<path stroke='gray' stroke-dasharray='2,4' class="gridline"  d='M724.82,242.40 L724.82,18.01  '/></g>
<g fill="none" color="gray" stroke="gray" stroke-width="1.00" stroke-linecap="butt" stroke-linejoin="miter">
</g>
<g fill="none" color="black" stroke="currentColor" stroke-width="1.00" stroke-linecap="butt" stroke-linejoin="miter">
	<path stroke='black'  d='M724.82,242.40 L724.82,233.40 M724.82,18.01 L724.82,27.01  '/>	<g transform="translate(724.82,264.30)" stroke="none" fill="black" font-family="Arial" font-size="12.00"  text-anchor="middle">
		<text><tspan font-family="Arial" > 0.05</tspan></text>
	</g>
</g>
<g fill="none" color="black" stroke="currentColor" stroke-width="1.00" stroke-linecap="butt" stroke-linejoin="miter">
</g>
<g fill="none" color="black" stroke="currentColor" stroke-width="1.00" stroke-linecap="butt" stroke-linejoin="miter">
	<path stroke='black'  d='M64.14,18.01 L64.14,242.40 L724.82,242.40 L724.82,18.01 L64.14,18.01 Z  '/></g>
<g fill="none" color="black" stroke="currentColor" stroke-width="1.00" stroke-linecap="butt" stroke-linejoin="miter">
	<g transform="translate(19.18,130.21) rotate(270)" stroke="none" fill="black" font-family="Arial" font-size="12.00"  text-anchor="middle">
		<text><tspan font-family="Arial" >stress</tspan></text>
	</g>
</g>
<g fill="none" color="black" stroke="currentColor" stroke-width="1.00" stroke-linecap="butt" stroke-linejoin="miter">
	<g transform="translate(394.48,291.30)" stroke="none" fill="black" font-family="Arial" font-size="12.00"  text-anchor="middle">
		<text><tspan font-family="Arial" >strain</tspan></text>
	</g>
</g>
<g fill="none" color="black" stroke="currentColor" stroke-width="1.00" stroke-linecap="butt" stroke-linejoin="miter">
</g>
	<g id="gnuplot_plot_1" ><title>"ES" u 1:2</title>
<g fill="none" color="white" stroke="currentColor" stroke-width="2.00" stroke-linecap="butt" stroke-linejoin="miter">
</g>
<g fill="none" color="black" stroke="currentColor" stroke-width="2.00" stroke-linecap="butt" stroke-linejoin="miter">
	<path stroke='rgb(148,   0, 211)'  d='M64.14,242.40 L70.75,186.30 L77.35,130.20 L83.96,74.11 L90.57,18.01 L97.17,23.48 L103.78,28.81 L110.39,34.02
		L116.99,39.09 L123.60,44.05 L130.21,48.88 L136.81,53.59 L143.42,58.19 L150.03,62.68 L156.64,67.06 L163.24,71.33
		L169.85,75.50 L176.46,79.56 L183.06,83.53 L189.67,87.40 L196.28,91.17 L202.88,94.86 L209.49,98.45 L216.10,101.95
		L222.70,105.37 L229.31,108.71 L235.92,111.97 L242.52,115.14 L249.13,118.24 L255.74,121.26 L262.34,124.21 L268.95,127.09
		L275.56,129.90 L282.16,132.63 L288.77,135.31 L295.38,137.91 L301.98,140.46 L308.59,142.94 L315.20,145.36 L321.81,147.72
		L328.41,150.02 L335.02,152.27 L341.63,154.46 L348.23,156.60 L354.84,158.69 L361.45,160.73 L368.05,162.71 L374.66,164.65
		L381.27,166.54 L387.87,168.39 L394.48,170.19 L401.09,171.94 L407.69,173.65 L414.30,175.33 L420.91,176.96 L427.51,178.55
		L434.12,180.10 L440.73,181.61 L447.33,183.09 L453.94,184.53 L460.55,185.94 L467.15,187.31 L473.76,188.65 L480.37,189.95
		L486.98,191.23 L493.58,192.47 L500.19,193.68 L506.80,194.86 L513.40,196.02 L520.01,197.14 L526.62,198.24 L533.22,199.31
		L539.83,200.36 L546.44,201.38 L553.04,202.37 L559.65,203.34 L566.26,204.29 L572.86,205.22 L579.47,206.12 L586.08,207.00
		L592.68,207.85 L599.29,208.69 L605.90,209.51 L612.50,210.31 L619.11,211.08 L625.72,211.84 L632.32,212.58 L638.93,213.30
		L645.54,214.01 L652.15,214.69 L658.75,215.36 L665.36,216.02 L671.97,216.66 L678.57,217.28 L685.18,217.89 L691.79,218.48
		L698.39,219.06 L705.00,219.62 L711.55,220.16 L719.11,220.58 L724.82,220.88  '/></g>
	</g>
<g fill="none" color="black" stroke="currentColor" stroke-width="2.00" stroke-linecap="butt" stroke-linejoin="miter">
</g>
<g fill="none" color="black" stroke="black" stroke-width="1.00" stroke-linecap="butt" stroke-linejoin="miter">
</g>
<g fill="none" color="black" stroke="currentColor" stroke-width="1.00" stroke-linecap="butt" stroke-linejoin="miter">
	<path stroke='black'  d='M64.14,18.01 L64.14,242.40 L724.82,242.40 L724.82,18.01 L64.14,18.01 Z  '/></g>
<g fill="none" color="black" stroke="currentColor" stroke-width="1.00" stroke-linecap="butt" stroke-linejoin="miter">
</g>
</g>
</svg>
